svg/emoji_u1f502.svg

<svg enable-background="new 0 0 128 128" viewBox="0 0 128 128" xmlns="http://www.w3.org/2000/svg"><linearGradient id="a" x1="64" x2="64" y1="4.25" y2="123.91" gradientUnits="userSpaceOnUse"><stop stop-color="#FFAB40" offset="0"/><stop stop-color="#FF6D00" offset="1"/></linearGradient><path d="m116 124h-104c-4.42 0-8-3.58-8-8v-104c0-4.42 3.58-8 8-8h104c4.42 0 8 3.58 8 8v104c0 4.42-3.58 8-8 8z" fill="url(#a)"/><g opacity=".2"><path d="m116 7c2.76 0 5 2.24 5 5v104c0 2.76-2.24 5-5 5h-104c-2.76 0-5-2.24-5-5v-104c0-2.76 2.24-5 5-5h104m0-3h-104c-4.42 0-8 3.58-8 8v104c0 4.42 3.58 8 8 8h104c4.42 0 8-3.58 8-8v-104c0-4.42-3.58-8-8-8z" fill="#424242"/></g><g fill="#424242" opacity=".2"><path d="m117.09 52.77c-0.45-0.54-1.08-0.92-1.78-1.04-0.18-0.03-0.35-0.05-0.53-0.05-0.74 0-1.45 0.27-2.01 0.77l-14.78 13.32c-0.6 0.54-0.95 1.3-0.99 2.1-0.27 6.4-2.97 9.13-9 9.13h-13.17c-0.95 0-1.84 0.45-2.41 1.21-0.17 0.23-0.3 0.49-0.39 0.76-3.41-10.75-13.48-18.55-25.33-18.55-2.88 0-5.66 0.47-8.26 1.32 0.34-0.47 0.54-1.03 0.56-1.61 0.27-6.4 2.97-9.13 9-9.13h33v12.99c0 3.86 3.15 7.01 7.02 7.01 1.68 0 3.3-0.62 4.59-1.74 0.05-0.04 0.1-0.09 0.15-0.14l23.94-23.93c1.47-1.33 2.31-3.21 2.31-5.19s-0.84-3.87-2.31-5.19l-23.94-23.93c-0.05-0.05-0.1-0.09-0.15-0.14-1.28-1.12-2.91-1.74-4.59-1.74-3.87 0-7.02 3.14-7.02 7.01v12.99h-33c-17.09 0-31 15.7-31 35 0 3.42 0.44 6.81 1.3 10.06 0.11 0.43 0.33 0.83 0.61 1.17 0.45 0.54 1.08 0.92 1.78 1.04 0.18 0.03 0.35 0.05 0.53 0.05 0.45 0 0.89-0.11 1.29-0.3-1.52 3.35-2.38 7.06-2.38 10.97 0 14.65 11.92 26.57 26.57 26.57 11.74 0 21.72-7.65 25.22-18.23-0.2 0.85-0.03 1.76 0.5 2.46 0.57 0.76 1.46 1.21 2.41 1.21h13.17c17.09 0 31-15.7 31-35 0-3.42-0.44-6.81-1.3-10.06-0.11-0.43-0.33-0.83-0.61-1.17zm-95.87 20.55c-0.01-0.01-0.02-0.02-0.02-0.03-0.78-2.94-1.2-6.06-1.2-9.29 0-17.67 12.54-32 28-32h34c1.1 0 2-0.9 2-2v-13.99c0-2.39 1.96-4.01 4.02-4.01 0.9 0 1.82 0.31 2.61 1l24 23.99c1.82 1.59 1.82 4.43 0 6.02l-24 23.99c-0.79 0.69-1.71 1-2.61 1-2.06 0-4.02-1.62-4.02-4.01v-13.99c0-1.1-0.9-2-2-2h-34c-4.82 0-11.55 1.51-12 12l-0.19 0.17c-6.3 2.4-11.47 7.1-14.5 13.07l-0.09 0.08zm25.48 37.24c-13.02 0-23.57-10.55-23.57-23.57s10.55-23.57 23.57-23.57 23.57 10.55 23.57 23.57-10.55 23.57-23.57 23.57zm41.3-14.56h-13.17c0.76-2.54 1.17-5.22 1.17-8s-0.41-5.46-1.17-8h13.17c4.82 0 11.55-1.51 12-12l14.78-13.32c0.01 0.01 0.02 0.02 0.02 0.03 0.78 2.94 1.2 6.06 1.2 9.29 0 17.67-12.54 32-28 32z"/><path d="m51.01 69.91c-0.1 0-0.21 0.02-0.31 0.05l-15.12 4.98c-0.4 0.14-0.66 0.51-0.66 0.93v4.51c0 0.56 0.46 0.98 0.98 0.98 0.09 0 0.18-0.01 0.28-0.04l5.94-1.74c0.09-0.03 0.19-0.04 0.28-0.04 0.52 0 0.98 0.42 0.98 0.98v25.12c0 0.54 0.44 0.98 0.98 0.98h6.65c0.54 0 0.98-0.44 0.98-0.98v-34.75c0-0.56-0.46-0.98-0.98-0.98zm-2.02 33.72h-2.61v-23.11c0-2.2-1.79-3.98-3.98-3.98-0.38 0-0.75 0.05-1.12 0.16l-3.36 0.98v-0.36l11.07-3.64v29.95z"/></g><g fill="#FAFAFA"><path d="m114.8 54.71c0-0.01-0.02-0.02-0.02-0.03l-14.78 13.32c-0.45 10.49-7.18 12-12 12h-13.17c0.76 2.54 1.17 5.22 1.17 8s-0.41 5.46-1.17 8h13.17c15.46 0 28-14.33 28-32 0-3.23-0.42-6.35-1.2-9.29z"/><path d="m114.63 36.99-24-23.99c-2.58-2.27-6.63-0.43-6.63 3.01v13.99c0 1.1-0.9 2-2 2h-34c-15.46 0-28 14.33-28 32 0 3.23 0.42 6.35 1.2 9.29 0 0.01 0.02 0.02 0.02 0.03l0.09-0.08c3.02-5.97 8.2-10.66 14.5-13.07l0.19-0.17c0.45-10.49 7.18-12 12-12h34c1.1 0 2 0.9 2 2v13.99c0 3.44 4.05 5.27 6.63 3.01l24-23.99c1.83-1.59 1.83-4.43 0-6.02z"/></g><path d="m46.7 63.42c-13.02 0-23.57 10.55-23.57 23.57s10.55 23.57 23.57 23.57 23.57-10.55 23.57-23.57-10.55-23.57-23.57-23.57zm5.29 42.23c0 0.54-0.44 0.98-0.98 0.98h-6.65c-0.54 0-0.98-0.44-0.98-0.98v-25.13c0-0.65-0.63-1.13-1.26-0.94l-5.94 1.74c-0.63 0.18-1.26-0.29-1.26-0.94v-4.51c0-0.42 0.27-0.79 0.66-0.93l15.12-4.98c0.64-0.21 1.29 0.26 1.29 0.93v34.76z" fill="#FAFAFA"/></svg>

<svg width="128" height="128" style="enable-background:new 0 0 128 128;" xmlns="http://www.w3.org/2000/svg" xmlns:xlink="http://www.w3.org/1999/xlink">
  <g>
    <linearGradient id="SVGID_1_" gradientUnits="userSpaceOnUse" x1="64" x2="64" y1="4.25" y2="123.9133">
      <stop offset="0" style="stop-color:#FFAB40"/>
      <stop offset="1" style="stop-color:#FF6D00"/>
    </linearGradient>
    <path d="M116,124H12c-4.42,0-8-3.58-8-8V12c0-4.42,3.58-8,8-8h104c4.42,0,8,3.58,8,8v104 C124,120.42,120.42,124,116,124z" style="fill:url(#SVGID_1_);"/>
    <g style="opacity:0.2;">
      <path d="M116,7c2.76,0,5,2.24,5,5v104c0,2.76-2.24,5-5,5H12c-2.76,0-5-2.24-5-5V12c0-2.76,2.24-5,5-5H116 M116,4H12c-4.42,0-8,3.58-8,8v104c0,4.42,3.58,8,8,8h104c4.42,0,8-3.58,8-8V12C124,7.58,120.42,4,116,4L116,4z" style="fill:#424242;"/>
    </g>
    <g>
      <g style="opacity:0.2;">
        <path d="M117.09,52.77c-0.45-0.54-1.08-0.92-1.78-1.04c-0.18-0.03-0.35-0.05-0.53-0.05 c-0.74,0-1.45,0.27-2.01,0.77L97.99,65.77c-0.6,0.54-0.95,1.3-0.99,2.1c-0.27,6.4-2.97,9.13-9,9.13H74.83 c-0.95,0-1.84,0.45-2.41,1.21c-0.17,0.23-0.3,0.49-0.39,0.76C68.62,68.22,58.55,60.42,46.7,60.42c-2.88,0-5.66,0.47-8.26,1.32 c0.34-0.47,0.54-1.03,0.56-1.61c0.27-6.4,2.97-9.13,9-9.13h33v12.99c0,3.86,3.15,7.01,7.02,7.01c1.68,0,3.3-0.62,4.59-1.74 c0.05-0.04,0.1-0.09,0.15-0.14l23.94-23.93c1.47-1.33,2.31-3.21,2.31-5.19s-0.84-3.87-2.31-5.19L92.76,10.88 c-0.05-0.05-0.1-0.09-0.15-0.14C91.33,9.62,89.7,9,88.02,9C84.15,9,81,12.14,81,16.01V29H48c-17.09,0-31,15.7-31,35 c0,3.42,0.44,6.81,1.3,10.06c0.11,0.43,0.33,0.83,0.61,1.17c0.45,0.54,1.08,0.92,1.78,1.04c0.18,0.03,0.35,0.05,0.53,0.05 c0.45,0,0.89-0.11,1.29-0.3c-1.52,3.35-2.38,7.06-2.38,10.97c0,14.65,11.92,26.57,26.57,26.57c11.74,0,21.72-7.65,25.22-18.23 c-0.2,0.85-0.03,1.76,0.5,2.46c0.57,0.76,1.46,1.21,2.41,1.21H88c17.09,0,31-15.7,31-35c0-3.42-0.44-6.81-1.3-10.06 C117.59,53.51,117.37,53.11,117.09,52.77z M21.22,73.32c-0.01-0.01-0.02-0.02-0.02-0.03C20.42,70.35,20,67.23,20,64 c0-17.67,12.54-32,28-32h34c1.1,0,2-0.9,2-2V16.01c0-2.39,1.96-4.01,4.02-4.01c0.9,0,1.82,0.31,2.61,1l24,23.99 c1.82,1.59,1.82,4.43,0,6.02L90.63,67c-0.79,0.69-1.71,1-2.61,1C85.96,68,84,66.38,84,63.99V50c0-1.1-0.9-2-2-2H48 c-4.82,0-11.55,1.51-12,12l-0.19,0.17c-6.3,2.4-11.47,7.1-14.5,13.07L21.22,73.32z M46.7,110.56 c-13.02,0-23.57-10.55-23.57-23.57S33.68,63.42,46.7,63.42s23.57,10.55,23.57,23.57S59.72,110.56,46.7,110.56z M88,96H74.83 c0.76-2.54,1.17-5.22,1.17-8s-0.41-5.46-1.17-8H88c4.82,0,11.55-1.51,12-12l14.78-13.32c0.01,0.01,0.02,0.02,0.02,0.03 c0.78,2.94,1.2,6.06,1.2,9.29C116,81.67,103.46,96,88,96z" style="fill:#424242;"/>
        <path d="M51.01,69.91c-0.1,0-0.21,0.02-0.31,0.05l-15.12,4.98c-0.4,0.14-0.66,0.51-0.66,0.93v4.51 c0,0.56,0.46,0.98,0.98,0.98c0.09,0,0.18-0.01,0.28-0.04l5.94-1.74c0.09-0.03,0.19-0.04,0.28-0.04c0.52,0,0.98,0.42,0.98,0.98 v25.12c0,0.54,0.44,0.98,0.98,0.98h6.65c0.54,0,0.98-0.44,0.98-0.98V70.89C51.99,70.33,51.53,69.91,51.01,69.91z M48.99,103.63 h-2.61V80.52c0-2.2-1.79-3.98-3.98-3.98c-0.38,0-0.75,0.05-1.12,0.16l-3.36,0.98v-0.36l11.07-3.64V103.63z" style="fill:#424242;"/>
      </g>
      <g>
        <path d="M114.8,54.71c0-0.01-0.02-0.02-0.02-0.03L100,68c-0.45,10.49-7.18,12-12,12H74.83 c0.76,2.54,1.17,5.22,1.17,8s-0.41,5.46-1.17,8H88c15.46,0,28-14.33,28-32C116,60.77,115.58,57.65,114.8,54.71z" style="fill:#FAFAFA;"/>
        <path d="M114.63,36.99L90.63,13C88.05,10.73,84,12.57,84,16.01V30c0,1.1-0.9,2-2,2H48 c-15.46,0-28,14.33-28,32c0,3.23,0.42,6.35,1.2,9.29c0,0.01,0.02,0.02,0.02,0.03l0.09-0.08c3.02-5.97,8.2-10.66,14.5-13.07L36,60 c0.45-10.49,7.18-12,12-12h34c1.1,0,2,0.9,2,2v13.99c0,3.44,4.05,5.27,6.63,3.01l24-23.99 C116.46,41.42,116.46,38.58,114.63,36.99z" style="fill:#FAFAFA;"/>
      </g>
      <path d="M46.7,63.42c-13.02,0-23.57,10.55-23.57,23.57s10.55,23.57,23.57,23.57s23.57-10.55,23.57-23.57 S59.72,63.42,46.7,63.42z M51.99,105.65c0,0.54-0.44,0.98-0.98,0.98h-6.65c-0.54,0-0.98-0.44-0.98-0.98V80.52 c0-0.65-0.63-1.13-1.26-0.94l-5.94,1.74c-0.63,0.18-1.26-0.29-1.26-0.94v-4.51c0-0.42,0.27-0.79,0.66-0.93l15.12-4.98 c0.64-0.21,1.29,0.26,1.29,0.93V105.65z" style="fill:#FAFAFA;"/>
    </g>
  </g>
</svg>
